src/images/customer-support-illustration.svg

<?xml version="1.0"?>
<svg width="900.1" height="696.67" xmlns="http://www.w3.org/2000/svg" xmlns:svg="http://www.w3.org/2000/svg" xmlns:xlink="http://www.w3.org/1999/xlink" data-name="Layer 1">
 <defs>
  <linearGradient id="fa4a4f63-ffbe-4a50-a004-4e8ae15cd2d3" x1="0.5" x2="0.5" y1="1" y2="0">
   <stop offset="0" stop-color="gray" stop-opacity="0.25" style="--darkreader-inline-stopcolor:#60686c;"/>
   <stop offset="0.54" stop-color="gray" stop-opacity="0.12" style="--darkreader-inline-stopcolor:#60686c;"/>
   <stop offset="1" stop-color="gray" stop-opacity="0.1" style="--darkreader-inline-stopcolor:#60686c;"/>
  </linearGradient>
  <linearGradient id="e26e1273-ae5e-4f1a-b841-a4248e9532de" x1="584.38" x2="584.38" xlink:href="#fa4a4f63-ffbe-4a50-a004-4e8ae15cd2d3" y1="798.34" y2="714.29"/>
  <linearGradient id="54428808-f3ba-4b0a-98a1-6e23268491ee" x1="760.68" x2="760.68" xlink:href="#fa4a4f63-ffbe-4a50-a004-4e8ae15cd2d3" y1="248.69" y2="0"/>
 </defs>
 <title>active support</title>
 <g class="layer">
  <title>Layer 1</title>
  <g id="svg_1" opacity="0.8">
   <path d="m971.12,763.13l-774.6,0l0,-501a15.8,15.8 0 0 1 15.8,-15.8l743,0a15.8,15.8 0 0 1 15.8,15.8l0,501z" fill="url(#fa4a4f63-ffbe-4a50-a004-4e8ae15cd2d3)" id="svg_2" transform="translate(-149.95 -101.66)"/>
  </g>
  <path d="m73,153.77l721.69,0a15.8,15.8 0 0 1 15.8,15.8l0,491.9a0,0 0 0 1 0,0l-753.25,0a0,0 0 0 1 0,0l0,-491.89a15.8,15.8 0 0 1 15.76,-15.81z" fill="#fff" id="svg_3" style="--darkreader-inline-fill:#181a1b;"/>
  <rect fill="#f5f5f5" height="462.25" id="svg_4" style="--darkreader-inline-fill:#1e2021;" width="704.75" x="81.49" y="183.31"/>
  <rect fill="#e0e0e0" height="415.88" id="svg_5" opacity="0.8" style="--darkreader-inline-fill:#2a2d2f;" width="701.76" x="84.19" y="205.75"/>
  <rect fill="#f5f5f5" height="22.1" id="svg_6" style="--darkreader-inline-fill:#1e2021;" width="701.76" x="84.19" y="183.65"/>
  <circle cx="99.24" cy="194.37" fill="#ff5252" id="svg_7" r="5.36" style="--darkreader-inline-fill:#ff5353;"/>
  <circle cx="113.97" cy="194.37" fill="#ff0" id="svg_8" r="5.36" style="--darkreader-inline-fill:#ffff1a;"/>
  <circle cx="128.71" cy="194.37" fill="#69f0ae" id="svg_9" r="5.36" style="--darkreader-inline-fill:#68f0ad;"/>
  <text id="svg_10" x="-149.95" y="-101.66"/>
  <g id="svg_11" opacity="0.8">
   <path d="m992.79,796.35c-43.12,3.27 -783.62,2 -809.49,0c-33.92,-16.35 -33.3,-79.79 -33.3,-79.79l339.6,-2.27l1.14,19.31l145.32,0l5.68,-17l376.34,0s7.48,58.16 -25.29,79.75z" fill="url(#e26e1273-ae5e-4f1a-b841-a4248e9532de)" id="svg_12" transform="translate(-149.95 -101.66)"/>
  </g>
  <path d="m1012.57,721.67l-369,0a11.33,11.33 0 0 1 -8.6,18.74l-140.88,0a11.33,11.33 0 0 1 -8.6,-18.74l-330.43,0s-0.57,55.09 32.94,69.33c25.55,1.7 757,2.84 799.59,0c32.41,-18.79 24.98,-69.33 24.98,-69.33z" fill="#f5f5f5" id="svg_13" style="--darkreader-inline-fill:#1e2021;" transform="translate(-149.95 -101.66)"/>
  <circle cx="81.78" cy="631.94" fill="#e0e0e0" id="svg_14" r="4.54" style="--darkreader-inline-fill:#d4d1cb;"/>
  <circle cx="95.41" cy="631.94" fill="#e0e0e0" id="svg_15" r="4.54" style="--darkreader-inline-fill:#d4d1cb;"/>
  <circle cx="109.03" cy="631.94" fill="#e0e0e0" id="svg_16" r="4.54" style="--darkreader-inline-fill:#d4d1cb;"/>
  <path d="m419.88,375.85l32.19,0a139.5,139.5 0 0 1 139.5,139.5l0,101.41a0,0 0 0 1 0,0l-311.19,0a0,0 0 0 1 0,0l0,-101.41a139.5,139.5 0 0 1 139.5,-139.5z" fill="#00aeef" id="svg_17" style="--darkreader-inline-fill:#008bbf;" transform="matrix(1 0 0 1 0 0)"/>
  <circle cx="436.28" cy="179.39" fill="#333" id="svg_18" r="142.22" style="--darkreader-inline-fill:#262a2b;"/>
  <path d="m415.34,334.43l41.13,0a29,29 0 0 1 29,29l0,28.26a44.34,44.34 0 0 1 -44.34,44.34l-10.49,0a44.34,44.34 0 0 1 -44.34,-44.34l0,-28.22a29,29 0 0 1 29,-29l0.04,-0.04z" id="svg_19" opacity="0.1"/>
  <path d="m386.3,331.53l99.22,0a0,0 0 0 1 0,0l0,57.3a44.34,44.34 0 0 1 -44.34,44.34l-10.54,0a44.34,44.34 0 0 1 -44.34,-44.34l0,-57.3a0,0 0 0 1 0,0z" fill="#fdb797" id="svg_20" style="--darkreader-inline-fill:#702502;"/>
  <path d="m536.43,447.5a142.8,142.8 0 0 0 99.22,0.27l0,-12.18l-99.22,0l0,11.91z" id="svg_21" opacity="0.1" transform="translate(-149.95 -101.66)"/>
  <circle cx="436.28" cy="210.26" fill="#fdb797" id="svg_22" r="142.22" style="--darkreader-inline-fill:#702502;"/>
  <path d="m450.26,261.58l271.2,0s-23.15,-109.51 -125.68,-102.58s-145.52,102.58 -145.52,102.58z" id="svg_23" opacity="0.1" transform="translate(-149.95 -101.66)"/>
  <path d="m450.26,257.9l271.2,0s-23.15,-109.51 -125.68,-102.53s-145.52,102.53 -145.52,102.53z" fill="#333" id="svg_24" style="--darkreader-inline-fill:#262a2b;" transform="translate(-149.95 -101.66)"/>
  <ellipse cx="297" cy="204.2" fill="#fdb797" id="svg_25" rx="13.23" ry="24.81" style="--darkreader-inline-fill:#702502;"/>
  <ellipse cx="574.82" cy="204.2" fill="#fdb797" id="svg_26" rx="13.23" ry="24.81" style="--darkreader-inline-fill:#702502;"/>
  <path d="m471.31,185.34c3.25,-10.62 9.16,-20.77 18.28,-27.1c6.93,-4.81 15.22,-7.12 23.17,-9.94a177.08,177.08 0 0 0 33.68,-16.11c12.06,-7.43 23.39,-16.38 36.67,-21.29c22.85,-8.45 48.3,-3.88 71.89,2.18c5.81,1.49 11.69,3.11 16.81,6.25c5.93,3.63 10.48,9.09 14.92,14.44l37.44,45.16c3.43,4.13 6.88,8.31 9.3,13.11a45.09,45.09 0 0 1 4.26,14.79c1,8.28 0.22,17.06 -4,24.27c-6.33,10.81 -19.38,16.24 -31.89,16.74s-24.79,-3.13 -36.81,-6.65c-38.76,-11.35 -78,-21.93 -118.2,-26.64a333.41,333.41 0 0 0 -60.15,-1.95c-6.3,0.41 -14.62,3.3 -18.45,-3.12c-3.31,-5.57 1.37,-18.56 3.08,-24.14z" fill="#333" id="svg_27" style="--darkreader-inline-fill:#262a2b;" transform="translate(-149.95 -101.66)"/>
  <line fill="none" id="svg_28" opacity="0.05" stroke="#000" stroke-miterlimit="10" stroke-width="4" style="--darkreader-inline-stroke:#8c8273;" x1="341.3" x2="341.3" y1="506.34" y2="616.76"/>
  <line fill="none" id="svg_29" opacity="0.05" stroke="#000" stroke-miterlimit="10" stroke-width="4" style="--darkreader-inline-stroke:#8c8273;" x1="533.14" x2="533.14" y1="506.34" y2="616.76"/>
  <g id="svg_30" opacity="0.8">
   <polygon fill="url(#54428808-f3ba-4b0a-98a1-6e23268491ee)" id="svg_31" points="900.1 198.47 721.64 198.47 661.41 248.69 661.41 198.47 621.26 198.47 621.26 0 900.1 0 900.1 198.47"/>
  </g>
  <rect fill="#fff" height="189.79" id="svg_32" style="--darkreader-inline-fill:#181a1b;" width="271.28" x="625.04" y="2.36"/>
  <rect fill="#e0e0e0" height="5.64" id="svg_33" style="--darkreader-inline-fill:#2a2d2f;" width="214.95" x="655.59" y="30.26"/>
  <rect fill="#e0e0e0" height="5.64" id="svg_34" style="--darkreader-inline-fill:#2a2d2f;" width="147.78" x="655.59" y="55.66"/>
  <rect fill="#e0e0e0" height="5.64" id="svg_35" style="--darkreader-inline-fill:#2a2d2f;" width="177.34" x="655.59" y="81.05"/>
  <rect fill="#f7941e" height="5.64" id="svg_36" style="--darkreader-inline-fill:#b86707;" width="142.41" x="655.59" y="106.45"/>
  <rect fill="#f7941e" height="5.64" id="svg_37" style="--darkreader-inline-fill:#b86707;" transform="matrix(1 0 0 1 0 0)" width="214.95" x="655.59" y="131.84"/>
  <rect fill="#e0e0e0" height="5.64" id="svg_38" style="--darkreader-inline-fill:#2a2d2f;" width="214.95" x="655.59" y="157.24"/>
  <polygon fill="#fff" id="svg_39" points="671.45 188.46 671.45 238.66 726.66 183.44 671.45 188.46" style="--darkreader-inline-fill:#181a1b;"/>
 </g>
</svg>

<svg id="02d45862-41ba-4c70-8782-54d8e5b108cc" data-name="Layer 1" xmlns="http://www.w3.org/2000/svg" xmlns:xlink="http://www.w3.org/1999/xlink" width="900.1" height="696.67" viewBox="0 0 900.1 696.67"><defs><linearGradient id="fa4a4f63-ffbe-4a50-a004-4e8ae15cd2d3" x1="583.82" y1="763.13" x2="583.82" y2="246.35" gradientUnits="userSpaceOnUse"><stop offset="0" stop-color="gray" stop-opacity="0.25"/><stop offset="0.54" stop-color="gray" stop-opacity="0.12"/><stop offset="1" stop-color="gray" stop-opacity="0.1"/></linearGradient><linearGradient id="e26e1273-ae5e-4f1a-b841-a4248e9532de" x1="584.38" y1="798.34" x2="584.38" y2="714.29" xlink:href="#fa4a4f63-ffbe-4a50-a004-4e8ae15cd2d3"/><linearGradient id="54428808-f3ba-4b0a-98a1-6e23268491ee" x1="760.68" y1="248.69" x2="760.68" y2="0" xlink:href="#fa4a4f63-ffbe-4a50-a004-4e8ae15cd2d3"/></defs><title>active support</title><g opacity="0.8"><path d="M971.12,763.13H196.52v-501a15.8,15.8,0,0,1,15.8-15.8h743a15.8,15.8,0,0,1,15.8,15.8Z" transform="translate(-149.95 -101.66)" fill="url(#fa4a4f63-ffbe-4a50-a004-4e8ae15cd2d3)"/></g><path d="M73,153.77H794.69a15.8,15.8,0,0,1,15.8,15.8V661.47a0,0,0,0,1,0,0H57.24a0,0,0,0,1,0,0V169.58A15.8,15.8,0,0,1,73,153.77Z" fill="#fff"/><rect x="81.49" y="183.31" width="704.75" height="462.25" fill="#f5f5f5"/><rect x="84.19" y="205.75" width="701.76" height="415.88" fill="#e0e0e0" opacity="0.8"/><rect x="84.19" y="183.65" width="701.76" height="22.1" fill="#f5f5f5"/><circle cx="99.24" cy="194.37" r="5.36" fill="#ff5252"/><circle cx="113.97" cy="194.37" r="5.36" fill="#ff0"/><circle cx="128.71" cy="194.37" r="5.36" fill="#69f0ae"/><text x="-149.95" y="-101.66"></text><g opacity="0.8"><path d="M992.79,796.35c-43.12,3.27-783.62,2-809.49,0C149.38,780,150,716.56,150,716.56l339.6-2.27,1.14,19.31H636.06l5.68-17h376.34S1025.56,774.76,992.79,796.35Z" transform="translate(-149.95 -101.66)" fill="url(#e26e1273-ae5e-4f1a-b841-a4248e9532de)"/></g><path d="M1012.57,721.67h-369a11.33,11.33,0,0,1-8.6,18.74H494.09a11.33,11.33,0,0,1-8.6-18.74H155.06S154.49,776.76,188,791c25.55,1.7,757,2.84,799.59,0C1020,772.21,1012.57,721.67,1012.57,721.67Z" transform="translate(-149.95 -101.66)" fill="#f5f5f5"/><circle cx="81.78" cy="631.94" r="4.54" fill="#e0e0e0"/><circle cx="95.41" cy="631.94" r="4.54" fill="#e0e0e0"/><circle cx="109.03" cy="631.94" r="4.54" fill="#e0e0e0"/><path d="M419.88,375.85h32.19a139.5,139.5,0,0,1,139.5,139.5V616.76a0,0,0,0,1,0,0H280.38a0,0,0,0,1,0,0V515.35A139.5,139.5,0,0,1,419.88,375.85Z" fill="#6415ff"/><circle cx="436.28" cy="179.39" r="142.22" fill="#333"/><path d="M415.34,334.43h41.13a29,29,0,0,1,29,29v28.26a44.34,44.34,0,0,1-44.34,44.34H430.64a44.34,44.34,0,0,1-44.34-44.34V363.47a29,29,0,0,1,29-29Z" opacity="0.1"/><path d="M386.3,331.53h99.22a0,0,0,0,1,0,0v57.3a44.34,44.34,0,0,1-44.34,44.34H430.64a44.34,44.34,0,0,1-44.34-44.34v-57.3A0,0,0,0,1,386.3,331.53Z" fill="#fdb797"/><path d="M536.43,447.5a142.8,142.8,0,0,0,99.22.27V435.59H536.43Z" transform="translate(-149.95 -101.66)" opacity="0.1"/><circle cx="436.28" cy="210.26" r="142.22" fill="#fdb797"/><path d="M450.26,261.58H721.46S698.31,152.07,595.78,159,450.26,261.58,450.26,261.58Z" transform="translate(-149.95 -101.66)" opacity="0.1"/><path d="M450.26,257.9H721.46S698.31,148.39,595.78,155.37,450.26,257.9,450.26,257.9Z" transform="translate(-149.95 -101.66)" fill="#333"/><ellipse cx="297" cy="204.2" rx="13.23" ry="24.81" fill="#fdb797"/><ellipse cx="574.82" cy="204.2" rx="13.23" ry="24.81" fill="#fdb797"/><path d="M471.31,185.34c3.25-10.62,9.16-20.77,18.28-27.1,6.93-4.81,15.22-7.12,23.17-9.94a177.08,177.08,0,0,0,33.68-16.11c12.06-7.43,23.39-16.38,36.67-21.29,22.85-8.45,48.3-3.88,71.89,2.18,5.81,1.49,11.69,3.11,16.81,6.25,5.93,3.63,10.48,9.09,14.92,14.44l37.44,45.16c3.43,4.13,6.88,8.31,9.3,13.11a45.09,45.09,0,0,1,4.26,14.79c1,8.28.22,17.06-4,24.27-6.33,10.81-19.38,16.24-31.89,16.74s-24.79-3.13-36.81-6.65c-38.76-11.35-78-21.93-118.2-26.64a333.41,333.41,0,0,0-60.15-1.95c-6.3.41-14.62,3.3-18.45-3.12C464.92,203.91,469.6,190.92,471.31,185.34Z" transform="translate(-149.95 -101.66)" fill="#333"/><line x1="341.3" y1="506.34" x2="341.3" y2="616.76" fill="none" stroke="#000" stroke-miterlimit="10" stroke-width="4" opacity="0.05"/><line x1="533.14" y1="506.34" x2="533.14" y2="616.76" fill="none" stroke="#000" stroke-miterlimit="10" stroke-width="4" opacity="0.05"/><g opacity="0.8"><polygon points="900.1 198.47 721.64 198.47 661.41 248.69 661.41 198.47 621.26 198.47 621.26 0 900.1 0 900.1 198.47" fill="url(#54428808-f3ba-4b0a-98a1-6e23268491ee)"/></g><rect x="625.04" y="2.36" width="271.28" height="189.79" fill="#fff"/><rect x="655.59" y="30.26" width="214.95" height="5.64" fill="#e0e0e0"/><rect x="655.59" y="55.66" width="147.78" height="5.64" fill="#e0e0e0"/><rect x="655.59" y="81.05" width="177.34" height="5.64" fill="#e0e0e0"/><rect x="655.59" y="106.45" width="142.41" height="5.64" fill="#6415ff"/><rect x="655.59" y="131.84" width="214.95" height="5.64" fill="#6415ff"/><rect x="655.59" y="157.24" width="214.95" height="5.64" fill="#e0e0e0"/><polygon points="671.45 188.46 671.45 238.66 726.66 183.44 671.45 188.46" fill="#fff"/></svg>
